src/asset/120/buy_currency.svg

<svg width="120" height="120" viewBox="0 0 120 120" fill="none" xmlns="http://www.w3.org/2000/svg">
    <path d="M60.5 89C73.4787 89 84 78.4787 84 65.5C84 52.5213 73.4787 42 60.5 42C47.5213 42 37 52.5213 37 65.5C37 78.4787 47.5213 89 60.5 89Z" fill="url(#paint0_linear)"/>
    <path d="M28.9493 66C27.8772 66 27 65.2125 27 64.2501C27 63.4189 27.0244 62.5877 27.0975 61.7565C27.9259 51.8038 33.725 42.9012 42.9596 37.3015C43.8611 36.7546 45.0551 36.9733 45.6642 37.7827C46.2733 38.592 46.0297 39.6638 45.1282 40.2107C36.8925 45.2198 31.727 53.16 30.9716 62.0408C30.8985 62.7845 30.8742 63.5283 30.8742 64.272C30.8985 65.2125 30.0214 66 28.9493 66Z" fill="url(#paint1_linear)"/>
    <path d="M59.0481 98C55.3146 98 51.6467 97.3979 48.1535 96.2145C47.2365 95.9031 46.778 94.9481 47.1055 94.0969C47.433 93.2249 48.4373 92.7889 49.3325 93.1003C52.4546 94.1592 55.7295 94.699 59.0699 94.699C62.0392 94.699 64.9429 94.2837 67.7375 93.4325C68.6545 93.1626 69.637 93.6401 69.9208 94.5121C70.2046 95.3841 69.7025 96.3183 68.7855 96.5882C65.6416 97.5225 62.3666 98 59.0481 98Z" fill="url(#paint2_linear)"/>
    <path d="M91.116 62C90.1945 62 89.3676 61.3514 89.2495 60.4567C88.0209 51.7337 82.7758 44.0172 74.8846 39.2978C74.0104 38.761 73.7269 37.665 74.294 36.8375C74.861 36.0099 76.0187 35.7415 76.8929 36.2783C85.7528 41.5568 91.6121 50.2127 92.9824 59.987C93.1242 60.9711 92.3918 61.8658 91.3522 62C91.2813 62 91.1868 62 91.116 62Z" fill="url(#paint3_linear)"/>
    <path fill-rule="evenodd" clip-rule="evenodd" d="M47.7931 81.7851C47.8391 81.699 47.8851 81.613 47.908 81.5485V81.527C47.9195 81.484 47.931 81.4464 47.9425 81.4087C47.954 81.3711 47.9655 81.3335 47.977 81.2904V81.2474C48 81.1614 48 81.0754 48 81.0109C48 80.9464 48 80.8388 47.977 80.7743V80.7313L47.977 80.7311C47.954 80.6452 47.931 80.5592 47.908 80.4947V80.4732C47.8966 80.4302 47.8793 80.3926 47.8621 80.355C47.8448 80.3173 47.8276 80.2797 47.8161 80.2367V80.2152C47.7701 80.1292 47.7241 80.0646 47.6782 80.0001C47.6782 80.0001 47.6782 79.9786 47.6552 79.9786L38.4828 68.6883C38.1379 68.2582 37.5862 68.0001 37.0115 68.0001C36.4368 68.0001 35.8851 68.2582 35.5402 68.6883L26.3448 79.9571C26.3448 79.9571 26.3448 79.9786 26.3218 79.9786C26.313 79.991 26.3033 80.0043 26.2932 80.018C26.251 80.0755 26.2025 80.1416 26.1839 80.1937V80.2152C26.1379 80.2797 26.1149 80.3657 26.092 80.4517V80.4732C26.0805 80.5163 26.069 80.5539 26.0575 80.5915C26.046 80.6292 26.0345 80.6668 26.023 80.7098V80.7528C26 80.8388 26 80.9249 26 80.9894C26 81.0539 26 81.1614 26.023 81.2259V81.2689L26.023 81.269C26.046 81.355 26.069 81.441 26.092 81.5055V81.527C26.1034 81.57 26.1207 81.6076 26.1379 81.6453C26.1552 81.6829 26.1724 81.7206 26.1839 81.7636V81.7851C26.2299 81.8711 26.2759 81.9356 26.3218 82.0001C26.3218 82.0001 26.3218 82.0216 26.3448 82.0216L35.5172 93.312C35.8621 93.7421 36.4138 94.0001 36.9885 94.0001C37.5632 94.0001 38.1149 93.7421 38.4598 93.312L47.6322 82.0216C47.6322 82.0216 47.6322 82.0001 47.6552 82.0001L47.6552 82.0001C47.7012 81.9356 47.7471 81.8711 47.7931 81.7851ZM36.9886 72.5378L42.4599 79.269H31.5173L36.9886 72.5378ZM31.5173 82.7098L36.9886 89.441L42.4599 82.7098H31.5173Z" fill="url(#paint4_linear)"/>
    <path fill-rule="evenodd" clip-rule="evenodd" d="M76.7593 65.9999H83.6424C89.36 65.9999 94 70.9277 94 76.9999C94 83.0721 89.36 87.9999 83.6424 87.9999H76.7593C75.7917 87.9999 75 87.1591 75 86.1315V67.8682C75 66.8406 75.7917 65.9999 76.7593 65.9999ZM78.5186 84.2632H83.6424C87.4028 84.2632 90.4815 81.0169 90.4815 76.9999C90.4815 72.9829 87.4028 69.7366 83.6424 69.7366H78.5186V75.1315H84.5C85.4676 75.1315 86.2593 75.9723 86.2593 76.9999C86.2593 78.0275 85.4676 78.8683 84.5 78.8683H78.5186V84.2632Z" fill="url(#paint5_linear)"/>
    <path fill-rule="evenodd" clip-rule="evenodd" d="M67 30.0235C67 27.205 64.8994 24.8672 62.1732 24.3866V22.7479C62.1732 21.7866 61.3687 21 60.3855 21C59.4022 21 58.5978 21.7866 58.5978 22.7479V24.2992H56.9665V22.7479C56.9665 21.7866 56.162 21 55.1788 21C54.1955 21 53.3911 21.7866 53.3911 22.7479V24.2992H48.7877C47.8045 24.2992 47 25.0857 47 26.0471C47 27.0084 47.8045 27.795 48.7877 27.795H50.5754V40.205H48.7877C47.8045 40.205 47 40.9916 47 41.9529C47 42.9143 47.8045 43.7008 48.7877 43.7008H53.3687V45.2521C53.3687 46.2134 54.1732 47 55.1564 47C56.1397 47 56.9441 46.2134 56.9441 45.2521V43.7008H58.5754V45.2521C58.5754 46.2134 59.3799 47 60.3631 47C61.3464 47 62.1508 46.2134 62.1508 45.2521V43.6134C64.8994 43.1546 66.9777 40.795 66.9777 37.9765C66.9777 36.4252 66.352 35.0269 65.324 34C66.3743 32.9731 67 31.5748 67 30.0235ZM61.1453 27.8168C62.3967 27.8168 63.4246 28.8218 63.4246 30.0453C63.4246 31.2689 62.3967 32.2739 61.1453 32.2739H54.1509V27.8168H61.1453ZM54.1509 40.2051H61.1453C62.3967 40.2051 63.4246 39.2219 63.4246 37.9765C63.4246 36.753 62.3967 35.7479 61.1453 35.7479H54.1509V40.2051Z" fill="url(#paint6_linear)"/>
    <defs>
        <linearGradient id="paint0_linear" x1="37" y1="42" x2="67.4836" y2="33.6809" gradientUnits="userSpaceOnUse">
            <stop stop-color="#FFC75D"/>
            <stop offset="1" stop-color="#FFA363"/>
        </linearGradient>
        <linearGradient id="paint1_linear" x1="26.9892" y1="66.008" x2="45.9904" y2="66.008" gradientUnits="userSpaceOnUse">
            <stop stop-color="#5C8BFC"/>
            <stop offset="1" stop-color="#84B0FF"/>
        </linearGradient>
        <linearGradient id="paint2_linear" x1="46.9937" y1="97.9983" x2="70.0041" y2="97.9983" gradientUnits="userSpaceOnUse">
            <stop stop-color="#5C8BFC"/>
            <stop offset="1" stop-color="#84B0FF"/>
        </linearGradient>
        <linearGradient id="paint3_linear" x1="73.9939" y1="62.003" x2="93.003" y2="62.003" gradientUnits="userSpaceOnUse">
            <stop stop-color="#5C8BFC"/>
            <stop offset="1" stop-color="#84B0FF"/>
        </linearGradient>
        <linearGradient id="paint4_linear" x1="25.96" y1="94.0155" x2="48.0034" y2="94.0155" gradientUnits="userSpaceOnUse">
            <stop stop-color="#5C8BFC"/>
            <stop offset="1" stop-color="#84B0FF"/>
        </linearGradient>
        <linearGradient id="paint5_linear" x1="75.0056" y1="87.999" x2="93.9943" y2="87.999" gradientUnits="userSpaceOnUse">
            <stop stop-color="#5C8BFC"/>
            <stop offset="1" stop-color="#84B0FF"/>
        </linearGradient>
        <linearGradient id="paint6_linear" x1="46.9927" y1="47.0107" x2="66.9933" y2="47.0107" gradientUnits="userSpaceOnUse">
            <stop stop-color="#5C8BFC"/>
            <stop offset="1" stop-color="#84B0FF"/>
        </linearGradient>
    </defs>
</svg>

<svg width="120" height="120" fill="none" xmlns="http://www.w3.org/2000/svg"><path d="M60.5 89C73.479 89 84 78.479 84 65.5S73.479 42 60.5 42 37 52.521 37 65.5 47.521 89 60.5 89z" fill="url(#paint0_linear)"/><path d="M28.95 66c-1.073 0-1.95-.787-1.95-1.75 0-.831.024-1.662.098-2.493.828-9.953 6.627-18.856 15.862-24.456.901-.546 2.095-.328 2.704.482.61.809.366 1.88-.536 2.428-8.236 5.009-13.401 12.949-14.156 21.83a22.78 22.78 0 00-.098 2.231c.024.94-.853 1.728-1.925 1.728z" fill="url(#paint1_linear)"/><path d="M59.048 98c-3.733 0-7.401-.602-10.895-1.785-.916-.312-1.375-1.267-1.047-2.118.327-.872 1.331-1.308 2.227-.997A30.248 30.248 0 0059.07 94.7c2.97 0 5.873-.415 8.667-1.266.918-.27 1.9.207 2.184 1.08.284.871-.219 1.805-1.136 2.075A34.158 34.158 0 0159.048 98z" fill="url(#paint2_linear)"/><path d="M91.116 62c-.921 0-1.748-.649-1.867-1.543-1.228-8.723-6.473-16.44-14.364-21.16-.875-.536-1.158-1.632-.591-2.46.567-.827 1.725-1.096 2.599-.559 8.86 5.279 14.72 13.935 16.09 23.709.141.984-.591 1.879-1.63 2.013h-.237z" fill="url(#paint3_linear)"/><path fill-rule="evenodd" clip-rule="evenodd" d="M47.793 81.785c.046-.086.092-.172.115-.236v-.022c.011-.043.023-.08.035-.118.011-.038.023-.076.034-.119v-.043c.023-.086.023-.172.023-.236 0-.065 0-.172-.023-.237v-.043c-.023-.086-.046-.172-.069-.236v-.022c-.011-.043-.029-.08-.046-.118a.734.734 0 01-.046-.118v-.022c-.046-.086-.092-.15-.138-.215 0 0 0-.021-.023-.021l-9.172-11.29A1.897 1.897 0 0037.012 68c-.575 0-1.127.258-1.472.688l-9.195 11.27s0 .02-.023.02a2.738 2.738 0 01-.029.04.83.83 0 00-.11.176v.021a.737.737 0 00-.091.237v.021c-.011.043-.023.08-.034.118l-.035.119v.043c-.023.086-.023.172-.023.236 0 .065 0 .172.023.237v.043c.023.086.046.172.069.236v.022c.011.043.029.08.046.118a.73.73 0 01.046.119v.021c.046.086.092.15.138.215 0 0 0 .022.023.022l9.172 11.29c.345.43.897.688 1.471.688.575 0 1.127-.258 1.472-.688l9.172-11.29s0-.022.023-.022a1.87 1.87 0 00.138-.215zM36.99 72.538l5.47 6.731H31.518l5.472-6.731zM31.517 82.71l5.472 6.731 5.47-6.731H31.518z" fill="url(#paint4_linear)"/><path fill-rule="evenodd" clip-rule="evenodd" d="M76.76 66h6.882C89.36 66 94 70.928 94 77s-4.64 11-10.358 11H76.76C75.792 88 75 87.16 75 86.132V67.868c0-1.027.792-1.868 1.76-1.868zm1.759 18.263h5.123c3.76 0 6.84-3.246 6.84-7.263 0-4.017-3.08-7.263-6.84-7.263H78.52v5.395H84.5c.968 0 1.76.84 1.76 1.868s-.792 1.868-1.76 1.868h-5.981v5.395z" fill="url(#paint5_linear)"/><path fill-rule="evenodd" clip-rule="evenodd" d="M67 30.023c0-2.818-2.1-5.156-4.827-5.636v-1.64c0-.96-.804-1.747-1.788-1.747-.983 0-1.787.787-1.787 1.748v1.551h-1.631v-1.551c0-.961-.805-1.748-1.788-1.748s-1.788.787-1.788 1.748v1.551h-4.603c-.983 0-1.788.787-1.788 1.748s.804 1.748 1.788 1.748h1.787v12.41h-1.787c-.983 0-1.788.787-1.788 1.748s.804 1.748 1.788 1.748h4.58v1.551c0 .961.805 1.748 1.788 1.748.984 0 1.788-.787 1.788-1.748v-1.551h1.631v1.551c0 .961.805 1.748 1.788 1.748s1.788-.787 1.788-1.748v-1.639c2.748-.458 4.827-2.818 4.827-5.636 0-1.552-.626-2.95-1.654-3.977A5.517 5.517 0 0067 30.023zm-5.855-2.206c1.252 0 2.28 1.005 2.28 2.228 0 1.224-1.028 2.229-2.28 2.229h-6.994v-4.457h6.994zm-6.994 12.388h6.994c1.252 0 2.28-.983 2.28-2.228 0-1.224-1.028-2.23-2.28-2.23h-6.994v4.458z" fill="url(#paint6_linear)"/><defs><linearGradient id="paint0_linear" x1="37" y1="42" x2="67.484" y2="33.681" gradientUnits="userSpaceOnUse"><stop stop-color="#FFC75D"/><stop offset="1" stop-color="#FFA363"/></linearGradient><linearGradient id="paint1_linear" x1="26.989" y1="66.008" x2="45.99" y2="66.008" gradientUnits="userSpaceOnUse"><stop stop-color="#5C8BFC"/><stop offset="1" stop-color="#84B0FF"/></linearGradient><linearGradient id="paint2_linear" x1="46.994" y1="97.998" x2="70.004" y2="97.998" gradientUnits="userSpaceOnUse"><stop stop-color="#5C8BFC"/><stop offset="1" stop-color="#84B0FF"/></linearGradient><linearGradient id="paint3_linear" x1="73.994" y1="62.003" x2="93.003" y2="62.003" gradientUnits="userSpaceOnUse"><stop stop-color="#5C8BFC"/><stop offset="1" stop-color="#84B0FF"/></linearGradient><linearGradient id="paint4_linear" x1="25.96" y1="94.016" x2="48.003" y2="94.016" gradientUnits="userSpaceOnUse"><stop stop-color="#5C8BFC"/><stop offset="1" stop-color="#84B0FF"/></linearGradient><linearGradient id="paint5_linear" x1="75.006" y1="87.999" x2="93.994" y2="87.999" gradientUnits="userSpaceOnUse"><stop stop-color="#5C8BFC"/><stop offset="1" stop-color="#84B0FF"/></linearGradient><linearGradient id="paint6_linear" x1="46.993" y1="47.011" x2="66.993" y2="47.011" gradientUnits="userSpaceOnUse"><stop stop-color="#5C8BFC"/><stop offset="1" stop-color="#84B0FF"/></linearGradient></defs></svg>
